X: 32819
T: Popcorn Behaviour
R: reel
M: 4/4
K: Bminor
|:B2 fg fdBd|cBcd cABc|FBdB FBdB|cBcd Bcdf|
b2 fg fdBd|cBcd cAFE|FGBd edBG|1 Fdec B2 za:|2 Fdec B2 ze||
|:fBBf g4|fBBf eBBe|Bcde fefb|afde fgfe|
fBBf g4|fBBf eBBA|FGBd edBG|1 Fdec B2 ze:|2 Fdec B2 za||

